src/actions/32/mail-forward.svg

<svg xmlns="http://www.w3.org/2000/svg" viewBox="0 0 32 32">
  <defs id="defs3051">
    <style type="text/css" id="current-color-scheme">
      .ColorScheme-Text {
        color:#2e3440;
      }
      </style>
  </defs>
 <path 
     style="fill:currentColor;fill-opacity:1;stroke:none" 
     d="M 2 5 L 2 24.683594 L 2 27 L 20 27 L 20 26 L 3 26 L 3 25.111328 L 3.4296875 24.683594 L 12.785156 15.541016 L 16 18.683594 L 19.214844 15.541016 L 21 17.285156 L 21 15.888672 L 19.929688 14.841797 L 28.976562 6 L 29 6 L 29 14 L 30 14 L 30 5 L 2 5 z M 3 6 L 3.0234375 6 L 12.070312 14.841797 L 3 23.707031 L 3 6 z M 4.453125 6 L 27.546875 6 L 16 17.285156 L 4.453125 6 z M 25.484375 16 L 24.755859 16.726562 L 28.996094 20.955078 L 20 21 L 20 22 L 29.060547 21.982422 L 24.755859 26.273438 L 25.484375 27 L 31 21.5 L 25.484375 16 z "
     class="ColorScheme-Text"
     />
</svg>

<svg viewBox="0 0 32 32" xmlns="http://www.w3.org/2000/svg">
 <defs>
  <style type="text/css">.ColorScheme-Text {
        color:#2e3440;
      }</style>
 </defs>
 <path class="ColorScheme-Text" d="m2 5v19.684 2.3164h18v-1h-17v-0.88867l0.42969-0.42773 9.3555-9.1426 3.2148 3.1426 3.2148-3.1426 1.7852 1.7441v-1.3965l-1.0703-1.0469 9.0469-8.8418h0.023438v8h1v-9h-28zm1 1h0.023438l9.0469 8.8418-9.0703 8.8652v-17.707zm1.4531 0h23.094l-11.547 11.285-11.547-11.285zm21.031 10-0.72852 0.72656 4.2402 4.2285-8.9961 0.044922v1l9.0605-0.017578-4.3047 4.291 0.72852 0.72656 5.5156-5.5-5.5156-5.5z" fill="currentColor"/>
</svg>
